X:1
T:Title
%%score 1 2
L:1/8
Q:1/4=180
M:3/2
K:C
V:1 treble nm="Grand Piano, Vocal"
V:2 treble nm="Grand Piano, Staff-1"
V:1
 c4 c8 | A4 G4 c4- | c4 B2 A2- AG G2- | GE F2 G4 A4- | A2 A2 G4 A4 | G4 c2 d2 e4 | %6
w: By~English~Traditonal *||||||
 d2 c2 (3B2 G2 A2 G2 c2- | c2 B2 c4 F4 | G2 A2 (3:2:2B2 c-c>B A4 | G4 F8 | C4 E8 | F4 G6 F2 | %12
w: ||||||
 D4 G6 F2 | G2 E2 F4 C2 E2 | F2 C4 D4 C2- | C4[K:bass] A,2 G,4 G,2- | %16
w: ||||
 G,2 C2- C4- C3/2 z/[K:treble] E2- | E2 D4 C4 B,2- | B,2 A,2 G,2 C2 D2 E2 | F2 G6 F2 E2 | %20
w: ||||
 D2 C2 D2 E2 C4 | B,2 C6 C4- | C2 C4 C4 C2 | C2 B,4 C4 D2- | D2 C2- C4- C3/2 z/ z2 |] %25
w: |||||
V:2
 C4 C8 | F4 E8 | C4 D3 C B,2 B,2 | A,4 G,4 F4 | F2 F2 E4 C2 D2 | E4 E2 F2 G2 E2 | %6
w: No well,~|No well,~|* well,~ * * *|* well~ Ti|* dings~ good~ * *|I~ * * think~ *|
 F2 A2 (3:2:2G4 F2 G2 E2 | D4 C4 F4 | E2 F2 (3G2 E2 C2 F4- | F2 E2 F8 | z12 | z12 | z12 | z12 | %14
w: * * to~ * * *|* tell.~ Ti|* dings~ good~ * * think~|* * tell.~|||||
 z12 | z12 | z12 | z12 | z12 | z12 | z12 | z12 | z12 | z12 | z12 |] %25
w: |||||||||||

